X: 4970
T: Brenda Stubbert's
R: jig
M: 6/8
K: Adorian
B|:cAA EAA|cec Bdc|BGG ABd|e2g edB|
cBA EAc|edc Beg|bag ege|dcB A2B:|
|:c2d edc|age dec|BGG ABd|e2g edB|
cBA EAc|edc Beg|bag ege|dcB A2B:|

